!!!!SEGMENT: pl-sa--552-a-ix-32--037_anonim--marsz-kawaleryi.krn
!!!cenid: 18xx:548
!!!COM: Anonim
!!!COM-rismid: pe30004985
!!!CDT:
!!!CNT:
!!!OTL: Marsz Kawaleryi
!!!PDT:
!!!AGN: Secular; March
!!!SMS-siglum: PL-SA
!!!SMS-shelfmark: 552/A IX 32
!!!SMS-shelfwork: 037 W
!!!SMS-variant:
!!!SMS-altvar:
!!!NIFC-rismid: 1001069580
!!!system-decoration: {(s1,s2)}
!!!key:
**kern	**kern
*part1	*part1
*staff2	*staff1
*Iempty	*Ipiano
*	*I"Piano
*clefF4	*clefG2
*k[b-]	*k[b-]
*F:	*F:
*M3/4	*M3/4
*>[A,A,B,B,A,A,B,B]	*>[A,A,B,B,A,A,B,B]
=1	=1
*>A	*>A
*	*2\right
!	!LO:TX:a:Bi:t=Trio:rj
!	!LO:TX:a:Bi:t=Marsz Kawaleryi
8FF/L	4.ccc 4.aa\
8CC/J	.
*rep	*
8FF/L	.
8CC/J	8ccc 8aa\
*Xrep	*
8EE/L	8bb-L 8gg\
8CC/J	8bb-J 8gg\
=2	=2
8FF/L	8aaL 8ff\
8CC/J	8aaJ 8ff\
8EE/L	2gg 2ee\
8CC/J	.
*rep	*
8EE/L	.
8CC/J	.
*Xrep	*
!!LO:LB:g=original
=3	=3
8FF/L	4ff 4a\
8CC/J	.
*rep	*
8FF/L	4ff 4a\
8CC/J	.
*Xrep	*
*rep	*
8FF/L	4gg 4cc\
8CC/J	.
*Xrep	*
=4	=4
*rep	*
8FF/L	8aaL 8ff\
8CC/J	8aaJ 8ff\
*Xrep	*
*rep	*
8FF/L	4.gg 4.cc\
8CC/J	.
*Xrep	*
8EE/L	.
8CC/J	16aaLL 16ff\
.	16bb-JJ 16gg\
=5	=5
*rep	*
8EE/L	4ccc 4aa\
8CC/J	.
*Xrep	*
*rep	*
8EE/L	8cccL 8aa\
8CC/J	8cccJ 8aa\
*Xrep	*
*rep	*
8EE/L	8bb-L 8gg\
8CC/J	8bb-J 8gg\
*Xrep	*
=6	=6
*rep	*
8EE/L	8aaL 8ff\
8CC/J	8aaJ 8ff\
*Xrep	*
*rep	*
8EE/L	2gg 2ee\
8CC/J	.
*Xrep	*
*rep	*
8EE/L	.
8CC/J	.
*Xrep	*
=7	=7
*rep	*
!	!LO:TX:a:t=P:W źródle 4\right:problem
8EE/L	4ff 4a\
8CC/J	.
*Xrep	*
*rep	*
8EE/L	4ff 4a\
8CC/J	.
*Xrep	*
*rep	*
8EE/L	4gg 4cc\
8CC/J	.
*Xrep	*
=8	=8
8FF/L	8aaL 8ff\
8CC/J	8aaJ 8ff\
8EE/L	8ggL 8ee\
8CC/J	8ggJ 8cc\
4FF/	4ff 4a\
=9:|!|:	=9:|!|:
*>B	*>B
*	*Xtuplet
*tremolo	*
8CC/L	4.cc 4.e\
8C/	.
8CC/	.
8C/	24dd\LL
.	24ee\
.	24ff\JJ
8CC/	8gg\L
8C/J	16aa\L
.	16ff\JJ
*	*tuplet
=10	=10
*rep	*
8CC/L	8bb-\L
8C/	16aa\L
.	16gg\JJ
!	!LO:N:vis=4
8CC/	4.aa\
8C/	.
8CC/	.
8C/J	16gg\LL
.	16ff\JJ
*Xrep	*
=11	=11
*rep	*
8CC/L	16ff\LL
.	16ee\
8C/	16dd\
.	16cc\JJ
8CC/	16cc\LL
.	16dd\
8C/	16ee\
.	16ff\JJ
8CC/	8gg\L
8C/J	16aa\L
.	16ff\JJ
*Xrep	*
=12	=12
*rep	*
8CC/L	8bb-\L
8C/	16aa\L
.	16gg\JJ
8CC/	8aa\L
8C/	8bbn\
8CC/	8gg\
8C/J	8ccc\J
*Xtremolo	*
*Xrep	*
!	!LO:TX:b:Bi:t=Da Capo \nTrio
==	==
*-	*-
!!title: @{OTL};
!!!RDF**kern: > = above
!!!RDF**kern: < = below
!!!EED: Wojciech Jakubiak-Danek
!!!EST: 2020-12-13
!!!URL-scan: http://bc.bdsandomierz.pl/dlibra/publication/1308/edition/1276/content
!!!ONB-nifc: Str. 20, s. 5-6
!!!AIN: 1 empty
!!!ENC: Andrzej Borzym
!!!END: 2020-06-18
